X: 3
T: The Tolka
R: polka
M: 2/4
L: 1/8
K: Ador
|:e>fg fd | e>fg fd | f/g/f/e/d cB | d>cB cg || de cA | B/c/B/A/ Gd | BA A2 :|


Tune 1251	Setting 30043

